X:1
T:Rorate coeli - Handl
T:#
%%score { 1 | 2 } 3 4 { 5 | 6 }
L:1/8
Q:1/4=180
M:none
K:C
V:1 treble nm="Soprano I" snm="S"
V:2 treble 
V:3 treble nm="Alto" snm="A"
V:4 treble-8 nm="Tenor" snm="T"
V:5 bass nm="Bass I" snm="B"
V:6 bass 
V:1
"^Jacob Handl\n(1550-1591)""^Rorate coeli" z16 | z8 A8- | A8 (d6 c2 | B2 A2 B4) (G6 F2 | %4
w: |Ro\-|* ra\- *|* * * te *|
 E4) e6 d2 c2 B2 | A4 A4 (d6 c2 | B2 A2 B8) e4 | e12 E4- | E4 D4 E8 | z8 E8 | (e6 d2 c2 B2 c2 B2 | %11
w: * coe\- * * *|* li de\- *|* * * su-|per, de\-|* su- per,|et|nu\- * * * * *|
 A4 A4 z4 A4- | A2 G2 F2 G2 A2 B2 c2 d2 | e6 d2 c2 B2 c4- | c2 B2 A2 G2 A8) | A4 (G8 ^F4) | G16 | %17
w: * bes plu\-||||ant ju\- *|stum:|
 z16 | z16 | z16 | z4 E4 A4 B4 | (c2 B2 c2 d2 e2 d2 c2 d2 | e4 c4 d8 | e8 z8 | z16 | z16 | %26
w: |||a- pe- ri-|a\- * * * * * * *|* tur ter-|ra,|||
 A8 c4 d4 | e2 d2 c2 BA G6 ^F2 | ^G4 A4 B8 | c4 c4 c4 B4 | c4 e4 e4 d4 | e4 c4 c4 B4 | c8 z8 | %33
w: a- pe- ri-|a\- * * * * * *|* tur ter-|ra, et ger- mi-|net, et ger- mi-|net, et ger- mi-|net|
 z16 | z16 | z4 c2 d2 e2 d2 c2 B2 | A2 B2 c8) c4 | B2 c2 d2 cd e8 | e8 z4 (c2 d2 | %39
w: ||Sal\- * * * * *|* * * va-|to\- * * * * *|rem, Sal\- *|
 e2 d2 c2 B2 A4) A4 | (A2 G2 A6 G2 G4) | A4 (A2 B2 c2 B2 A2 G2 | A6 B2 c2 d2 e4- | e4 d4 e8- | %44
w: * * * * * va-|to\- * * * *|rem, Sal\- * * * * *||* va- to\-|
 e8 e8 | z4 E2 F2 G2 F2 E2 D2 | C4 c2 d2 e2 d2 c2 B2 | A12 d4 | ^c4 =c2 d2 e2 d2 c2 B2 | %49
w: * rem,|Sal\- * * * * *|* va\- * * * * *|* to-|rem, Sal\- * * * * *|
 A4) E4 e6 dc | B2 A2 B4 A8 | G4 A4 B8 | !fermata!^c16 |] %53
w: * va- to\- * *|* * * rem,|Sal- va- to-|rem.|
V:2
 z8 E8- | E8 (A6 G2 | F2 E2 F4) D8 | (G6 F2 E2 D2 E4) | C4 c8 e4 | d8 z8 | D8 G4 G4 | G4 C4 c4 c4 | %8
w: Ro\-|* ra\- *|* * * te|coe\- * * * *|li de- su-|per,|ro- ra- te|coe- li de- su-|
 A8 z8 | z4 E4 e6 d2 | c2 B2 c2 B2 A4 A4 | c8 d4 (D2 E2 | F2 G2 A2 B2 c2 d2 e4- | e2 d2 c2 BA G8) | %14
w: per,|et nu\- *|* * * * * bes|plu- ant ju\- *|||
 A4 c6 d2 e4 | d8 A8 | (B2 A2 G2 F2 E8) | z16 | z16 | z16 | z4 E4 F4 G4 | A8 (G2 F2 G2 A2 | %22
w: stum, plu\- * *|ant ju-|stum: * * * *||||a- pe- ri-|a- tur * * *|
 B4 (c6 BA B4) | c8 z8 | z16 | z16 | E8 A4 B4 | (c2 d2 e2 d2 c4) B4- | B2 A2) (A8 ^G4) | %29
w: * ter\- * * *|ra,|||a- pe- ri-|a\- * * * * tur|* * ter\- *|
 A4 A4 E4 G4 | G4 c4 c4 B4 | c4 e4 c4 d4 | G16 | z16 | z16 | z8 z4 c2 d2 | e2 d2 c2 B2 A4 G2 F2 | %37
w: ra, et ger- mi-|net, et ger- mi-|net, et ger- mi-|net|||Sal\- *||
 E4 A4 B8 | ^c4 =c2 d2 e2 d2 c2 BA | G4 (A2 B2) (c4 d4) | A4 d4 d4 d4 | c8 z4 A2 B2 | %42
w: * va- to-|rem, Sal\- * * * * * *|* va\- * to\- *|rem, Sal- va- to-|rem, Sal\- *|
 c2 B2 A2 G2 A6 B2 | c4 A4 B8 | ^c8 z4 =C4 | G4 G4 E8 | (c2 d2 e2 d2 c2 B2 A2 G2 | F4) E4 A8 | %48
w: |* va- to-|rem, et|ger- mi- net|Sal\- * * * * * * *|* va- to-|
 A8 z4 c2 d2 | e2 d2 c2 B2 A4 G2 F2 | G4 E4 (c2 B2 c2 A2 | B2 A2 A6 ^G2 G4) | !fermata!A16 |] %53
w: rem, Sal\- *||* va- to\- * * *||rem.|
V:3
 z16 | A,16 | D6 C2 B,2 A,2 B,2 C2 | D4 G,8 (G4- | G2 F2 E2 D2 C8) | D16 | z4 D4 E4 E4 | E8 E8 | %8
w: |Ro-|ra\- * * * * *|* te coe\-||li,|ro- ra- te|coe- li|
 A,8 B,8 | (^C2 D2 E2 F2 G8) | z16 | A,8 (A6 G2 | F2 E2 F4) E8 | z4 (C2 D2 E2 F2 G4) | %14
w: de- su-|per, * * * *||et nu\- *|* * * bes|plu\- * * * *|
 C4 (E6 D2 C4) | D8 D8 | D4 D4 C8 | z16 | z16 | z16 | z4 C4 A,4 G,4 | %21
w: ant ju\- * *|stum, plu-|ant ju- stum:||||a- pe- ri-|
 (F,2 G,2 A,2 B,2 C2 D2 E2 F2 | G4 A4 G8 | C8 z8 | z16 | z16 | C8 C4 B,4 | A,2 B,2 C2 D2 E6 D2 | %28
w: a\- * * * * * * *|* tur ter-|ra,|||a- pe- ri-|a\- * * * * *|
 E4 F4 E8 | E4 E4 E4 D4 | E4 G4 G4 G4 | E4 z2 E2 E4 G4 | E8 z8 | z4 C2 D2 E2 D2 C2 B,A, | %34
w: * tur ter-|ra, et ger- mi-|net, et ger- mi-|net, et ger- mi-|net|Sal\- * * * * * *|
 E4) D4 E8 | E4 (A,2 B,2 C2 B,2 A,2 G,2 | C2 D2 E6 D2 E2 F2) | G4 (A8 ^G4) | A8 z8 | z16 | z16 | %41
w: * va- to-|rem, Sal\- * * * * *||va- to\- *|rem,|||
 z4 (C2 D2 E2 D2 C2 B,2 | A,2 B,2 C2 D2 E6 ^F2) | ^G4 (A8 G4) | A8 z4 E4 | D4 C4 C8 | %46
w: Sal\- * * * * *||va- to\- *|rem, et|ger- mi- net|
 z4 (A,2 B,2 C2 D2 E2 DC | D4) (E6 D2 D4) | E16 | E16- | E16 | E16 | !fermata!E16 |] %53
w: Sal\- * * * * * *|* va\- * *|to-|rem.||||
V:4
 E16 | (A6 G2 F2 E2 F4) | D4 (d6 c2 B2 A2 | G4) E8 (e4- | e2 d2 c2 B2 c4) A4 | A8 z4 (d4- | %6
w: Ro-|ra\- * * * *|te coe\- * * *|* li de\-|* * * * * su-|per, coe\-|
 d2 c2 B2 A2 G4) G4 | E4 e4 c8 | z8 z4 E4 | (e6 d2 c2 B2 c2 B2 | A4) A4 z4 c4- | c4 (A6 G2 F2 G2 | %12
w: * * * * * li|de- su- per,|et|nu\- * * * * *|* bes plu\-|* ant * * *|
 A4) d4 c8- | c8 z4 (e4- | e2 d2 c2 B2 A2 B2 c4- | c4) B4 A8 | G8 z4 G4 | A4 (B4 c2 B2 c2 d2 | %18
w: * ju- stum,|* plu\-||* ant ju-|stum: a-|pe- ri- a\- * * *|
 e8) E4 (F2 G2 | A2 B2 c2 A2 B8) | c8 z8 | z16 | z16 | z4 c4 A4 G4 | (F2 G2 A2 B2 c4) (d2 c2) | %25
w: * tur ter\- *||ra,|||a- pe- ri-|a\- * * * * tur *|
 (_B2 A2 A8 G4) | A8 z8 | z16 | z16 | z4 c4 c4 d4 | c4 c4 c4 G4 | c4 A4 G4 G4 | %32
w: ter\- * * *|ra,|||et ger- mi-|net, et ger- mi-|net, et ger- mi-|
 G4 (E2 F2 G2 F2 E2 D2 | C4 G4 (c2 d2 e2 d2 | c4 B2 A2 B8) | c8 z4 A2 B2 | %36
w: net Sal\- * * * * *|* va- to\- * * *||rem, Sal\- *|
 c2 B2 A2 G2 A2 B2 c2 d2 | e4) f4 e8 | A8 z8 | z16 | z16 | z8 z4 (c2 d2 | e2 d2 c2 B2 A2 B2 c2 d2 | %43
w: |* va- to-|rem,|||Sal\- *||
 e4 f4 e8 | A4 A4 G6 G2 | G8 z4 (c2 d2 | e2 d2 c2 B2 A4) A4 | A6 G2 F8) | E16 | z4 A4 A4 E4 | %50
w: * va- to-|rem, et ger- mi-|net Sal\- *|* * * * * va-|to\- * *|rem,|et ger- mi-|
 G8 z8 | G4 c4 B8 | !fermata!A16 |] %53
w: net|Sal- va- to-|rem.|
V:5
 z16 | z16 | z16 | z8 E,8- | E,8 (A,6 G,2 | F,2 E,2 F,4) D,8 | (G,6 F,2 E,2 D,2 C,4- | %7
w: |||Ro\-|* ra\- *|* * * te|coe\- * * * *|
 C,4) A,,4 A,6 B,2 | C2 B,2 A,8 ^G,4 | A,8 z8 | z8 A,,8 | A,6 G,2 F,2 E,2 F,2 E,2 | %12
w: * li de\- *|* * * su-|per,|et|nu\- * * * * *|
 D,4 D,4 (E,6 D,2 | C,2 B,,2 A,,2 B,,2 C,2 D,2 E,4- | E,4) E,4 E,8 | F,4 G,4 A,4 D,4 | D,8 z4 E,4 | %17
w: * bes plu\- *||* ant ju-|stum, plu- ant ju-|stum: a-|
 F,4 G,4 A,8 | G,4 C,2 D,2 E,2 C,2 C4- | C2 B,2 A,8 ^G,4 | A,8 z8 | z16 | z16 | z4 E,4 F,4 G,4 | %24
w: pe- ri- a-|tur ter\- * * * *||ra,|||a- pe- ri-|
 (A,6 G,2 F,2 E,2 D,2 E,2 | F,4) E,4 D,8 | E,8 z8 | z16 | z16 | A,8 G,4 G,4 | E,8 z8 | %31
w: a\- * * * * *|* tur ter-|ra,|||et ger- mi-|net,|
 z4 E,4 E,4 D,4 | E,4 (C,2 D,2 E,2 D,2 C,2 B,,2 | A,,4 E,4 (A,4 G,2 ^F,2 | G,2 E,2 A,6 ^G,2 G,4) | %35
w: et ger- mi-|net Sal\- * * * * *|* va- to\- * *||
 A,8 z8 | z16 | z16 | z8 z4 A,2 B,2 | C2 B,2 A,2 G,2 A,2 G,2 F,2 E,2 | F,4) D,4 D,8 | E,8 z8 | %42
w: rem,|||Sal\- *||* va- to-|rem,|
 z16 | z8 E,8 | A,4 A,,4 C,4 (E,2 F,2 | G,2 F,2 E,2 D,2 C,4) E,4 | A,8 E,8 | z16 | %48
w: |et|ger- mi- net Sal\- *|* * * * * va-|to- rem,||
 z4 (A,,2 B,,2 C,2 B,,2 A,,2 G,,2 | A,,6 B,,2 C,2 D,2 E,4- | E,2 F,2 G,4) A,8 | E,16 | %52
w: Sal\- * * * * *||* * * va-|to-|
"^rem." !fermata!E,16 |] %53
w: |
V:6
 z16 | z16 | z16 | z16 | A,,16 | D,6 C,2 B,,2 A,,2 B,,4 | G,,4 (G,6 F,2 E,2 D,2 | C,8) A,,4 A,4- | %8
w: ||||Ro-|ra- * * * *|te coe\- * * *|* li de\-|
 A,4 F,4 E,8 | z16 | A,,8 A,6 G,2 | F,2 E,2 F,2 E,2 D,8 | D,8 A,,6 B,,2 | %13
w: * su- per,||et nu\- *||bes plu\- *|
 C,2 D,2 E,6 D,2 C,2 B,,2 | A,,8 A,,8 | D,16 | G,,8 z4 C,4 | A,,4 G,,4 (F,,2 G,,2 A,,2 B,,2 | %18
w: |* ant|ju-|stum: a-|pe- ri- a\- * * *|
 C,2 D,2 E,2 F,2 G,4) A,4 | (F,8 E,8) | A,,8 z8 | z16 | z16 | C,8 D,4 E,4 | %24
w: * * * * * tur|ter\- *|ra,|||a- pe- ri-|
 F,2 E,2 F,2 G,2 A,2 G,2 F,2 E,2 | D,4 C,4 _B,,8 | A,,8 z8 | z16 | z16 | A,,8 C,4 G,,4 | C,8 z8 | %31
w: a\- * * * * * * *|* tur ter-|ra,|||et ger- mi-|net,|
 z4 A,,4 C,4 G,,4 | C,8 z4 C,2 D,2 | (E,2 D,2 C,2 B,,2 A,,2 B,,2 C,2 D,2 | E,4) F,4 E,8 | A,,8 z8 | %36
w: et ger- mi-|net Sal\- *||* va- to-|rem,|
 z16 | z16 | z4 (A,2 B,2 C2 B,2 A,2 G,2 | C,4) F,4 (F,2 E,2 D,2 C,2 | D,2 C,2 _B,,2 A,,2 B,,8) | %41
w: ||Sal\- * * * * *|* va- to\- * * *||
 A,,8 z8 | z16 | z16 | A,,8 E,4 C,4 | G,,4 (C,2 D,2 E,2 D,2 C,2 B,,2 | A,,4) A,,4 A,,4 A,,4 | %47
w: rem,|||et ger- mi-|net Sal\- * * * * *|* va- to- rem,|
 D,4 ^C,4 D,8 | A,,8 z4 (A,,2 B,,2 | C,2 B,,2 A,,2 G,,2 A,,2 B,,2 C,2 D,2 | E,8)"^6" A,,8 | E,16 | %52
w: Sal- va- to-|rem, Sal\- *||* va-|to-|
"^rem." !fermata!A,,16 |] %53
w: |

